X: 2013
T: Squirrel with the Doughnut
R: reel
C: Rick Gagne
N: 1987 on whistle
M: 4/4
Q: 1/8=360
K: G
ga | "G"b/a/gfg "Em"egdg | "Am"egdB "D"A2ga | "G"b/a/gfg "Em"egdg |\
"C"egdB "G5"g2ga | 
"G"b/a/gfg "Em"egdg | "Am"egdB "D"abga | "G"b/a/gfg "Em"egdg | "C"egdB "G5"g2 ||
GA | "Em"B/A/GdG "C"eGdG | "Am"egdB "D"ABGA | "Em"B/A/GdG "C"eGdG |\
"Am"egdB "G5"G2GA | 
"Em"B/A/GdG "C"eGdG | "Am"gedB "D"ABGA | "Em"B/A/GdG "C"eGfG | "Am"gedB "G5"g2 ||
